X: 178
T: No_87_Song_of_Starvation.krn
N: Derived from No_87_Song_of_Starvation.krn
%%abc-version 2.0
%%abcx-abcm2ps-target-version 5.9.1 (29 Sep 2008)
%%abc-creator hum2abc beta
%%abcx-conversion-date 2019/03/15 08:29:13
%%humdrum-veritas 3333781577
%%humdrum-veritas-data 3124389754
%%linebreak <none>
%%barnumbers 0
L: 1/8
M: 2/4
%%staves {1 2}
V: 1 clef=bass
V: 2 clef=bass
K: A
[V:1] [K:clef=bass][M:2/4]B,B,B,2 | 
[V:2] [K:clef=bass][M:2/4]G,,G,, G,,G,, | 
[V:1] B,A, A,=F, | 
[V:2] G,,G,, G,,G,, | 
[V:1] =F,4 | 
[V:2] z4 | 
[V:1] E,2E,2 | 
[V:2] z4 | 
[V:1] A,A,A,2 | 
[V:2] z4 | 
[V:1] A,=F, F,E, | 
[V:2] z4 | 
[V:1] E,4 | 
[V:2] z4 | 
[V:1] C,2C,2 | 
[V:2] z4 | 
[V:1] C,C,E,2 | 
[V:2] z4 | 
[V:1] E,E, E,E, | 
[V:2] z4 | 
[V:1] E,4 | 
[V:2] z4 | 
[V:1] E,2E,2 | 
[V:2] z4 | 
[V:1] F,F, A,A, [I:setbarnb 14]| 
[V:2] z4 | 
[V:1] A,A, F,F, | 
[V:2] z4 | 
[V:1] F,4 | 
[V:2] z4 | 
[V:1] F,2F,2 | 
[V:2] z4 | 
[V:1] B,B,B,2 | 
[V:2] z4 | 
[V:1] B,A, A,=F, | 
[V:2] z4 | 
[V:1] =F,4 | 
[V:2] z4 | 
[V:1] E,2E,2 | 
[V:2] z4 | 
[V:1] E,C,E,2 | 
[V:2] z4 | 
[V:1] E,E, E,E, | 
[V:2] z4 | 
[V:1] E,4 | 
[V:2] z4 | 
[V:1] C,2C,2 | 
[V:2] z4 | 
[V:1] C,C,E,2 | 
[V:2] z4 | 
[V:1] E,E, E,E, | 
[V:2] z4 | 
[V:1] E,4 | 
[V:2] z4 | 
[V:1] E,2E,2 :|]  
[V:2] z4 :|]  



